X: 5770
T: Cairn Stones, The
R: reel
M: 4/4
K: Emixolydian
|:B2 GA BE ~E2|B,EGB dAFA|B2 GA Be ~e2|gefe dfed|
B2 GA BE ~E2|B,EGB dAFA|B2 (3GAB dfed|BdAF E2 GA:|
K:Emin
|:B2 ^GB eB^GB|~B2 ^GB eB^GB|c2 Ac =fcAc|~c2 Ac =fcAc|
B2 ^GB eB^GB|~B2 ^GB eB^GB|cBAG FGAB|(3cBA BG ABcA:|
K:Emix
|:Be ~e2 be ~e2|Beec dAFA|Be ~e2 be ~e2|dAFA dfed|
Be ~e2 be ~e2|Beec dAFA|B2 (3GAB dfed|1 BdAF E2 GA:|2 BdAF E4||

